X:538
T: Xiongmei saichayang
N: C1956
O: China,Jiangxi Nanchang
S: IV, 194]
R: Xiaodiao, Lanqiao jishui diao]
M: 2/4
L: 1/16
K: A
e2efcBA2 | e3cB4 | c2c2BcBA | F3EE4 |
B2BcE2E2 | F2FEB,2E2 | A2FAB3AF4
A2FABcBA | FAAEF3EE4
e3cB4 | A3FE4 |
A2FABcBA | FAAEF3E | E8

@@@ Tune index: 7093
